icons/2_Variations/Yandex alt.svg

<svg width="1024" height="1024" viewBox="0 0 1024 1024" fill="none" xmlns="http://www.w3.org/2000/svg">
<g clip-path="url(#clip0_3_353)">
<path d="M512 1024C794.77 1024 1024 794.77 1024 512C1024 229.23 794.77 0 512 0C229.23 0 0 229.23 0 512C0 794.77 229.23 1024 512 1024Z" fill="#FF837D"/>
<path d="M259.44 428.209H246.54C222.9 428.209 210.48 440.069 210.48 457.629C210.48 477.559 219.08 486.809 236.75 498.629L251.32 508.359L209.32 570.759H178L215.73 514.999C194 499.579 181.82 484.629 181.82 459.239C181.82 427.449 204.03 405.859 246.3 405.859H288.3V570.759H259.4L259.44 428.209ZM522.63 548.499H535.29V598.089H509V570.809H445.25V598.099H419V548.499H427.84C437.84 528.569 439.78 490.849 439.78 461.659V451.459H522.65L522.63 548.499ZM494.21 473.759H464.12V477.319C464.12 497.959 461.97 530.469 454.12 548.499H494.24L494.21 473.759ZM378.62 498.679H340.62V451.459H312.22V570.799H340.64V520.999H378.64V570.799H407V451.459H378.62V498.679ZM818.54 471.399C829.54 471.399 840.27 475.199 846.01 478.749V454.749C840.01 451.429 829.53 449.059 815.44 449.059C779.14 449.059 760.27 474.919 760.27 511.219C760.27 551.079 778.66 573.149 816.63 573.149C829.77 573.149 839.08 570.779 846.01 565.799V542.799C838.85 547.799 830.25 550.869 818.31 550.869C798.01 550.869 789.65 535.209 789.65 510.539C789.65 484.679 799.92 471.389 818.55 471.389M756.46 451.459H727.78L687.66 506.459V451.459H659.24V570.809H687.66V512.199L729.66 570.799H761.9L716.28 506.499L756.46 451.459ZM593.34 449.089C621.76 449.089 640.15 464.749 640.15 506.269V521.219H571.59C572.78 541.149 580.67 550.879 601.44 550.879C615.29 550.879 630.1 545.659 638.94 539.729V562.729C630.58 568.419 617.21 573.169 599.06 573.169C562.76 573.169 542.22 552.999 542.22 511.479C542.22 475.419 558.7 449.079 593.33 449.079M611.23 497.999C611.23 483.049 606.93 471.429 592.84 471.429C579.23 471.429 572.3 481.429 571.58 500.379H611.22L611.23 497.999Z" fill="white"/>
</g>
<defs>
<clipPath id="clip0_3_353">
<rect width="1024" height="1024" fill="white"/>
</clipPath>
</defs>
</svg>

<svg xmlns="http://www.w3.org/2000/svg" viewBox="0 0 1024 1024">
   <circle cx="512" cy="512" r="512" style="fill:#fc3f1d"/>
   <path d="M259.44 428.21h-12.9c-23.64 0-36.06 11.86-36.06 29.42 0 19.93 8.6 29.18 26.27 41l14.57 9.73-42 62.4H178L215.73 515c-21.73-15.42-33.91-30.37-33.91-55.76 0-31.79 22.21-53.38 64.48-53.38h42v164.9h-28.9ZM522.63 548.5h12.66v49.59H509v-27.28h-63.75v27.29H419v-49.6h8.84c10-19.93 11.94-57.65 11.94-86.84v-10.2h82.87Zm-28.42-74.74h-30.09v3.56c0 20.64-2.15 53.15-10 71.18h40.12Zm-115.59 24.92h-38v-47.22h-28.4V570.8h28.42V521h38v49.8H407V451.46h-28.38Zm439.92-27.28c11 0 21.73 3.8 27.47 7.35v-24c-6-3.32-16.48-5.69-30.57-5.69-36.3 0-55.17 25.86-55.17 62.16 0 39.86 18.39 61.93 56.36 61.93 13.14 0 22.45-2.37 29.38-7.35v-23c-7.16 5-15.76 8.07-27.7 8.07-20.3 0-28.66-15.66-28.66-40.33 0-25.86 10.27-39.15 28.9-39.15m-62.09-19.93h-28.68l-40.12 55v-55h-28.42v119.35h28.42V512.2l42 58.6h32.24l-45.62-64.3Zm-163.12-2.37c28.42 0 46.81 15.66 46.81 57.18v14.95h-68.56c1.19 19.93 9.08 29.66 29.85 29.66 13.85 0 28.66-5.22 37.5-11.15v23c-8.36 5.69-21.73 10.44-39.88 10.44-36.3 0-56.84-20.17-56.84-61.69 0-36.06 16.48-62.4 51.11-62.4m17.9 48.92c0-14.95-4.3-26.57-18.39-26.57-13.61 0-20.54 10-21.26 28.95h39.64Z" style="fill:#fff"/>
</svg>
